X: 37256
T: Skansen's
R: reel
M: 4/4
K: Dmajor
e2 d>c d>BB>c|A>AA>B G>AB<d|e2 d>c d>BB>d|e>gf>d e2 a2:|
e2 g2 a>dd>e|A>AA>B G>AB<d|e2 g2 a>dd>f|e>gf>d e2 a2|
e2 g2 a>dd>e|A>AA>B G>AB<d|e2 d>c d>BB>d|e>gf>d e2 e2||

